usr/share/icons/big-icons/symbolic/actions/view-financial-budget.svg

<svg viewBox="0 0 16 16" xmlns="http://www.w3.org/2000/svg">
  <defs id="defs3051">
    <style type="text/css" id="current-color-scheme">
      .ColorScheme-Text {
        color:#eff0f1;
      }
      .ColorScheme-NegativeText {
        color:#da4453;
      }
      </style>
  </defs>
<path
    d="m3 2v12h5.3652344c-.1477689-.308604-.2135218-.648735-.265625-1h-4.0996094v-10h8v6.0996094c.351265.052103.691396.1178561 1 .265625v-7.3652344zm2 2v1h4v-1zm0 2v1h4v-1zm0 2v1h4v-1zm6.5 2c-1.385 0-2.5 1.115-2.5 2.5s1.115 2.5 2.5 2.5 2.5-1.115 2.5-2.5-1.115-2.5-2.5-2.5zm0 1c.4155 0 .791375.166375 1.0625.4375s.4375.647.4375 1.0625h-1.5v1.5c-.4155 0-.791375-.166375-1.0625-.4375s-.4375-.647-.4375-1.0625.166375-.791375.4375-1.0625.647-.4375 1.0625-.4375z"
    style="fill:currentColor;fill-opacity:1;stroke:none"
    class="ColorScheme-Text"
    />
<path
    d="m10 4v1h1v-1zm0 2v1h1v-1zm0 2v1h1v-1z"
    style="fill:currentColor;fill-opacity:1;stroke:none"
    class="ColorScheme-NegativeText"
    />
</svg>

<svg xmlns="http://www.w3.org/2000/svg" viewBox="0 0 16 16">
<defs id="defs3051">
<style id="current-color-scheme" type="text/css">
.ColorScheme-Text{color:#fcfcfc}.ColorScheme-NegativeText{color:#da4453}
</style>
</defs>
<path d="M3 2v12h5.365c-.148-.309-.213-.649-.265-1H4V3h8v6.1c.351.052.691.117 1 .265V2zm2 2v1h4V4zm0 2v1h4V6zm0 2v1h4V8zm6.5 2C10.115 10 9 11.115 9 12.5s1.115 2.5 2.5 2.5 2.5-1.115 2.5-2.5-1.115-2.5-2.5-2.5m0 1a1.497 1.497 0 0 1 1.5 1.5h-1.5V14a1.497 1.497 0 0 1-1.5-1.5 1.497 1.497 0 0 1 1.5-1.5" class="ColorScheme-Text" style="fill:currentColor;fill-opacity:1;stroke:none"/>
<path d="M10 4v1h1V4zm0 2v1h1V6zm0 2v1h1V8z" class="ColorScheme-NegativeText" style="fill:currentColor;fill-opacity:1;stroke:none"/>
</svg>
